<?xml version="1.0" encoding="UTF-8"?>
<map version="1.10" tiledversion="1.12.2" orientation="orthogonal" renderorder="right-down" width="30" height="20" tilewidth="16" tileheight="16" infinite="0" nextlayerid="2" nextobjectid="1">
 <properties>
  <property name="has_collision" type="bool" value="true"/>
 </properties>
 <tileset firstgid="1" source="world.tsx"/>
 <layer id="1" name="Tile Layer 1" width="30" height="20">
  <properties>
   <property name="has_collision" type="bool" value="true"/>
   <property name="texture_name" value="Textures/tilemap.png"/>
  </properties>
  <data encoding="csv">
0,289,289,289,289,0,0,0,0,0,0,0,0,0,0,0,0,0,0,0,0,0,0,0,0,0,0,0,0,0,
0,0,0,0,0,0,0,0,0,0,0,0,0,0,0,0,0,0,0,0,0,0,0,0,0,0,0,0,0,0,
0,0,0,0,0,289,0,0,0,0,17,18,0,0,0,0,0,0,0,0,0,0,0,0,0,0,0,0,0,0,
0,0,0,289,0,0,0,0,0,377,42,43,0,0,0,0,0,0,0,0,0,0,0,0,0,0,0,0,0,0,
0,0,0,0,0,0,0,0,0,402,208,209,210,17,0,0,0,0,0,0,0,0,0,0,0,0,0,0,0,0,
0,0,0,0,0,0,0,0,0,427,233,186,235,42,0,0,0,0,0,0,0,0,0,0,0,0,0,0,0,0,
0,0,0,0,0,0,0,0,0,452,208,209,210,208,0,0,0,0,0,0,0,0,0,0,212,213,214,0,0,0,
0,0,0,0,0,0,0,0,0,427,233,234,235,208,0,0,0,0,0,0,0,212,213,214,237,238,239,0,0,0,
0,0,0,0,10,0,0,0,7,452,9,10,11,233,0,0,0,0,0,0,0,237,238,239,9,10,11,12,0,0,
0,0,0,0,0,0,0,0,32,33,34,35,36,37,0,0,0,0,0,0,0,31,32,33,34,35,36,37,0,0,
0,0,0,0,0,0,0,0,338,338,338,278,279,280,0,0,0,0,0,0,0,278,279,280,278,279,280,278,279,280,
0,0,0,0,0,0,0,0,0,0,0,0,0,0,0,0,0,0,0,0,0,0,0,0,0,0,0,0,0,0,
0,0,0,0,0,0,0,0,0,0,0,0,0,0,0,0,0,0,0,0,0,0,0,0,0,0,0,0,0,0,
0,0,0,0,0,0,0,0,0,0,0,0,0,0,0,0,0,0,0,0,0,0,0,0,0,0,0,0,0,0,
0,0,0,0,0,0,0,0,0,0,0,0,0,0,0,0,0,0,0,0,0,0,0,0,0,0,0,0,0,0,
0,0,0,0,0,0,0,0,0,0,0,0,0,0,0,0,0,0,0,0,0,0,0,0,0,0,0,0,0,0,
0,0,0,0,0,0,0,0,0,0,0,0,0,0,0,0,0,367,368,369,370,371,0,0,369,0,0,0,0,0,
0,0,0,0,0,0,0,0,0,0,0,0,0,0,0,0,396,392,393,0,0,0,392,393,394,395,0,0,0,0,
0,0,0,0,0,0,0,0,0,0,0,0,0,0,0,0,0,0,0,419,420,343,0,0,0,0,0,0,0,0,
0,0,0,0,0,0,0,0,0,0,0,0,0,0,0,0,0,0,0,0,0,0,0,0,0,0,0,0,0,0
</data>
 </layer>
</map>
